X:1
T:Sonatina in G
T:Sonatina in G
T:Anh. 5, No. 1
T:Ludwig van Beethoven
T:Public Domain (PianoXML)
T:Public Domain (PianoXML)
T:Public Domain (PianoXML)
C:Ludwig van Beethoven
Z:Public Domain (PianoXML)
%%score { 1 | ( 2 3 ) }
L:1/8
Q:1/4=80
M:4/4
K:G
V:1 treble nm="Piano" snm="Pno."
V:2 bass 
V:3 bass 
V:1
!p!"^Moderato" G4{/B} (AGAB) | G2!>(! (gd) (dB)(BG)!>)! | c4{/c} (BABc) | A2 (de dBcA) | %4
!<(! G4{/B} (AGAB) | c4{/f} (edef!<)! | gd)(ec)!>(! (Bd)(cA) | ([CFA]4 [B,G]2)!>)! z2 |: %8
!mf! A4 (cBAB | dc)!>(!(ag fedc | B4)!>)! (dcBc | ed)(b!>(!a gfed!>)! | c2)!>(! (ag fedc | %13
 B2)!>)!!>(! (gf edcB | A2)!>)!!<(! (DE FGAB!<)! | c2)"_poco rit." (Bc d!>(!cAB!>)! | %16
 G4){/B} (AGAB) | G2!>(! (gd) (dB)(BG)!>)! | c4{/c} (BABc) | A2 (de dBcA |!<(! G4){/B} (AGAB | %21
 c4){/f} (edef | g!<)!d)(ec)!>(! (Bd)(cA) | ([CFA]4 [B,G]2)!>)! z2 :| d4 d2 d2 | (d4 g2 b2 | %26
 d'4) d'2 d'2 |!>(! b4 z4!>)! |!p! d4 d2 d2 |!<(! (d4 g2 b2 | d'2)!<)! z2 f2 z2 | %31
 g2 z2!f! [B,G]2 [B,G]2 | [B,G]4 [B,G]4 | !fermata!!stemless![B,G]8 |] %34
[M:6/8]!p!!p!"^Romanze" (Bcd | G2) G{/B} (AGA | B2 G) (Bcd | G2) .G{/A} (GFG | A2) z (Bcd | %39
 G2)!<(!!<(! G ABc | c2!<)!!<)! (e gec | B2!>(!!>(! d cAd | G2)!>)!!>)! z!mf! ::!mf!{/A} (GFG | %44
!<(! .A).B.^c .d.e.f | (a2!<)!!>(! g) (fed | ^cBA ecG | F2)!>)! (A!p!!p! .d).d.d | %48
 (B2 G)!mp! .d.d.d | (B2 G)!mf! .d.d.d | (BGE FGE | D2) z!<(! (FED | A2) z (AGF | c2) z (cBA!<)! | %54
!f! !fermata!e2) (d"_dim." cBA | GFE DEF | GA^A)!p! (Bcd | G2) G{/B} (AGA | B2 G) (Bcd | %59
 G2) .G{/A} (GFG | A2) z (Bcd | G2) G (GAB | c2) (e gec | B2!>(!!>(! d cAd | G2)!>)!!>)! z :| %65
!p! (Bcd | A2) A{AB} (c>BA | G2) G{/A} (GFG | EFG ABA) | (A2 D)!mf! (Bcd | A2) A{AB} (cBA | %71
 G3) (g2 e | d2 B A2 d | B3)!f! (g2 e | d2 B cAd | G2) z [Bg]2 z | [B,G]2 z |] %77
V:2
 [G,B,]4 [F,C]4 | [G,B,]2 z2 z4 | [D,A,]4 [D,G,]4 | [D,F,]2 z2 z4 | G,DB,D G,=FDF | %5
 G,(ECE) G,C-A,C | (B,2 C2 D2 D,2 | G,2 D,2 G,,2) z2 |: (F,D,F,D, G,D,G,D, | A,2) z2 z4 | %10
 (G,D,G,D, A,D,A,D, | B,2) z2 z4 | [D,A,]2 z2 z2 [D,F,]2 | [D,G,]2 z2 z2 [D,E,]2 | [D,F,]2 z2 z4 | %15
 z8 |!p! ([G,B,]4 [F,C]4 | [G,B,]2) z2 z4 | ([D,A,]4 [D,G,]4 | [D,F,]2) z2 z4 | G,DB,D G,=FDF | %21
 G,ECE G,CA,C | (B,2 C2 D2 D,2 | G,2 D,2 G,,2) z2 :|!mf! D,A,CA, D,A,CA, | D,G,B,G, D,G,B,G, | %26
 D,F,A,F, D,F,A,F, | D,G,B,G, D,G,B,G, | D,A,CA, D,A,CA, | D,G,B,G, D,G,B,G, | D,F,A,F, D,A,CA, | %31
 [G,B,]2 z2 G,,2 G,,2 | (G,,2 G,2 D,2 B,,2 | !fermata!!stemless!G,,8) |][M:6/8] z2 z | %35
 (G,.[B,D]).[B,D] (F,.[CD]).[CD] | (G,.[B,D]).[B,D] z z2 | z .[G,B,].[G,B,] z .[G,^C].[G,C] | %38
 z .[F,D].[F,D] z2 z |"_.""_." (G,B,D G,D=F | [CE]2) z z2 z | (D,G,B, D,F,C | [G,B,]2) z :: z2 z | %44
 ([F,A,]6 | [E,B,]6 |"_.""_." [A,^C]6 | [D,D]2) z (D,E,F, | G,A,B,) (D,E,F, | G,A,B,) (D,E,F, | %50
 G,2) z A,2 z | D,2 z z z2 |"_.""_." !arpeggio![D,F,A,C]2 z4 |"_.""_." !arpeggio![D,F,A,C]2 z4 | %54
"_.""_." !arpeggio!!fermata![D,F,A,C]2 z4 | z6 | z6 | (G,.[B,D]).[B,D] (F,.[CD]).[CD] | %58
"_.""_." (G,.[B,D]).[B,D] z z2 | z .[G,B,].[G,B,] z .[G,^C].[G,C] | z .[F,D].[F,D] z z2 | %61
 (G,B,D G,D=F | [CE]2) z4 | (D,G,B, D,F,C |"_.""_." [G,B,]2) z :| z2 z | (([D,F,C]6 | %67
 [E,G,B,]2)) z4 | (C,3 [^C,G,]3 | [D,F,]2) z z z2 | (D,F,C D,F,C |"_.""_." E,G,B, C,E,G, | %72
 D,G,B, D,F,C | G,B,D) (C,E,G, | D,G,B, D,F,C | [G,B,]2) z!ped! [G,D]2 z!ped-up! | %76
!ped! [G,,D,]2 z!ped-up! |] %77
V:3
 x8 | x8 | x8 | x8 | x8 | x8 | x8 | x8 |: x8 | x8 | x8 | x8 | x8 | x8 | x8 | x8 | x8 | x8 | x8 | %19
 x8 | x8 | x8 | x8 | x8 :| x8 | x8 | x8 | x8 | x8 | x8 | x8 | x8 | x8 | x8 |][M:6/8] x3 | x6 | x6 | %37
 E,3 E,3 | D,3 x3 | x6 | x6 | x6 | x3 :: x3 | x6 | x6 | x6 | x6 | x6 | x6 | x6 | x6 | x6 | x6 | %54
 x6 | x6 | x6 | x6 | x6 | E,3 E,3 | D,3 x3 | x6 | x6 | x6 | x3 :| x3 | x6 | x6 | x6 | x6 | x6 | %71
 x6 | x6 | x6 | x6 | x6 | x3 |] %77

